;FLAVOR:Marlin
;TIME:5604
;Filament used: 6.27536m
;Layer height: 0.2
;MINX:67.2
;MINY:64.2
;MINZ:0.24
;MAXX:142.927
;MAXY:145.928
;MAXZ:26.115
;Generated with Cura_SteamEngine 5.2.1
M82 ;absolute extrusion mode
;Profil Homepage: https://github.com/NilsRo/Cura_Anycubic_MegaS_Profile

;Slicer Information - (Support for OctoPrint Slicer Estimator)
;Slicer info:material_guid;0ff92885-617b-4144-a03c-9989872454bc
;Slicer info:material_id;generic_pla_175
;Slicer info:material_brand;Generic
;Slicer info:material_name;PLA
;Slicer info:filament_cost;[0.0]
;Slicer info:material_bed_temperature;50.0
;Slicer info:material_bed_temperature_layer_0;60.0
;Slicer info:material_print_temperature;200.0
;Slicer info:material_print_temperature_layer_0;205.0
;Slicer info:material_flow;100
;Slicer info:layer_height;0.2
;Slicer info:machine_nozzle_size;0.4
;Slicer info:wall_thickness;1.2000000000000002
;Slicer info:speed_print;70.0
;Slicer info:speed_topbottom;50.0
;Slicer info:travel_speed;150.0
;Slicer info:support;0
;Slicer info:retraction_speed;30
;Slicer info:retraction_amount;6
;Slicer info:layer_height;0.2
;Slicer info:infill_pattern;grid
;Slicer info:infill_sparse_density;25.0
;Slicer info:cool_fan_enabled;True
;Slicer info:cool_fan_speed;100
;Slicer info:sliced_at;Mon 30-09-2024 19:14:26
G21                                        ; metric values 
G90                                        ; absolute positioning 
M82                                        ; set extruder to absolute mode 
M107                                       ; start with the fan off 
M140 S60.0   ; Start heating the bed 
G4 S60                                     ; wait 1 minute 
M104 S205.0 ; start heating the hot end 
M190 S60.0   ; wait for bed 
M109 S205.0 ; wait for hotend 
M300 S1000 P500                            ; BEEP heating done 
G28 X0 Y10 Z0                              ; move X/Y to min endstops 
M420 S1                                    ; Enable leveling 
M420 Z2.0                                  ; Set leveling fading height to 2 mm 
G0 Z0.15                                   ; lift nozzle a bit 
G92 E0                                     ; zero the extruded length 
G1 X50 E20 F500                            ; Extrude 20mm of filament in a 5cm line. 
G92 E0                                     ; zero the extruded length again 
G1 E-2 F500                                ; Retract a little 
G1 X50 F500                                ; wipe away from the filament line
G1 X100 F9000                              ; Quickly wipe away from the filament line
G92 E0
G92 E0
G1 F1800 E-6
;LAYER_COUNT:130
;LAYER:0
M106 S76.5
M204 S3000
M205 X10 Y10
G1 F480 Z0.315
;MESH:LAB-001-030-110_00.STL
G0 F9000 X116.519 Y121.759 Z0.315
M204 S2000
M205 X8 Y8
;TYPE:WALL-INNER
G1 F480 Z0.24
G1 F1800 E0
G1 F2400 X116.278 Y121.846 E0.01023
G1 X82.304 Y121.85 E1.3662
G1 X81.998 Y121.647 E1.38086
G1 X81.366 Y120.712 E1.4259
G1 X81.073 Y120.255 E1.44757
G1 X80.522 Y119.341 E1.49016
G1 X80.004 Y118.409 E1.53272
G1 X79.526 Y117.472 E1.5747
G1 X79.064 Y116.491 E1.61798
G1 X78.65 Y115.517 E1.66022
G1 X78.449 Y115.012 E1.68192
G1 X78.083 Y114.014 E1.72434
G1 X77.913 Y113.504 E1.7458
G1 X77.606 Y112.508 E1.7874
G1 X77.456 Y111.976 E1.80946
G1 X77.312 Y111.423 E1.83227
G1 X77.078 Y110.412 E1.87368
G1 X76.873 Y109.369 E1.91611
G1 X76.779 Y108.811 E1.93869
G1 X76.634 Y107.787 E1.97997
G1 X76.573 Y107.267 E2.00087
G1 X76.52 Y106.719 E2.02284
G1 X76.444 Y105.655 E2.06542
G1 X76.405 Y104.61 E2.10715
G1 X76.403 Y103.524 E2.1505
G1 X76.416 Y102.985 E2.17202
G1 X76.471 Y101.92 E2.21458
G1 X76.562 Y100.856 E2.2572
G1 X76.686 Y99.823 E2.29873
G1 X76.854 Y98.738 E2.34255
G1 X77.056 Y97.697 E2.38487
G1 X77.172 Y97.17 E2.40641
G1 X77.421 Y96.166 E2.4477
G1 X77.718 Y95.114 E2.49132
G1 X77.878 Y94.597 E2.51292
G1 X78.226 Y93.587 E2.55556
G1 X78.606 Y92.591 E2.59811
G1 X79.021 Y91.607 E2.64073
G1 X79.472 Y90.639 E2.68335
G1 X79.953 Y89.683 E2.72607
G1 X80.469 Y88.751 E2.76859
G1 X81.016 Y87.838 E2.81107
G1 X81.304 Y87.385 E2.83249
G1 X81.896 Y86.5 E2.87499
G1 X82.208 Y86.063 E2.89642
G1 X82.847 Y85.208 E2.93902
G1 X83.519 Y84.376 E2.98171
G1 X84.215 Y83.572 E3.02415
G1 X84.579 Y83.174 E3.04568
G1 X85.319 Y82.404 E3.0883
G1 X86.097 Y81.649 E3.13157
G1 X86.878 Y80.948 E3.17345
G1 X87.694 Y80.257 E3.21613
G1 X88.534 Y79.6 E3.25869
G1 X89.392 Y78.971 E3.30116
G1 X89.836 Y78.666 E3.32266
G1 X90.731 Y78.081 E3.36533
G1 X91.644 Y77.53 E3.40789
G1 X92.571 Y77.015 E3.45022
G1 X93.05 Y76.763 E3.47182
G1 X94.009 Y76.293 E3.51444
G1 X94.964 Y75.865 E3.55621
G1 X95.5 Y75.64 E3.57941
G1 X96.473 Y75.265 E3.62103
G1 X97.481 Y74.917 E3.6636
G1 X98.494 Y74.605 E3.7059
G1 X99.047 Y74.449 E3.72883
G1 X100.052 Y74.199 E3.77017
G1 X101.097 Y73.973 E3.81284
G1 X102.141 Y73.786 E3.85517
G1 X102.702 Y73.701 E3.87782
G1 X103.736 Y73.573 E3.9194
G1 X104.798 Y73.478 E3.96196
G1 X105.845 Y73.42 E4.00381
G1 X106.927 Y73.4 E4.047
G1 X107.466 Y73.403 E4.06852
G1 X108.527 Y73.437 E4.11088
G1 X109.051 Y73.468 E4.13183
G1 X110.13 Y73.56 E4.17506
G1 X111.155 Y73.683 E4.21626
G1 X111.718 Y73.764 E4.23896
G1 X112.771 Y73.947 E4.28162
G1 X113.816 Y74.169 E4.32426
G1 X114.82 Y74.418 E4.36554
G1 X115.872 Y74.713 E4.40915
G1 X116.474 Y74.9 E4.43431
G1 X116.664 Y75.062 E4.44428
G1 X116.796 Y75.367 E4.45754
G1 X116.8 Y121.33 E6.29202
G1 X116.737 Y121.52 E6.30001
G1 X116.519 Y121.759 E6.31292
M204 S3000
M205 X10 Y10
G0 F9000 X116.398 Y121.285
M204 S2000
M205 X8 Y8
;TYPE:WALL-OUTER
G1 F2400 X116.226 Y121.449 E6.32241
G1 X82.429 Y121.449 E7.67132
G1 X82.309 Y121.388 E7.67669
G1 X81.702 Y120.496 E7.71976
G1 X81.415 Y120.049 E7.74096
G1 X80.872 Y119.147 E7.78298
G1 X80.36 Y118.227 E7.825
G1 X79.888 Y117.302 E7.86645
G1 X79.432 Y116.335 E7.90912
G1 X79.022 Y115.369 E7.951
G1 X78.825 Y114.874 E7.97227
G1 X78.463 Y113.887 E8.01423
G1 X78.295 Y113.386 E8.03532
G1 X77.991 Y112.4 E8.0765
G1 X77.843 Y111.875 E8.09827
G1 X77.702 Y111.333 E8.12062
G1 X77.47 Y110.335 E8.16151
G1 X77.267 Y109.303 E8.20349
G1 X77.175 Y108.755 E8.22567
G1 X77.032 Y107.741 E8.26654
G1 X76.97 Y107.217 E8.2876
G1 X76.919 Y106.691 E8.3087
G1 X76.844 Y105.64 E8.35075
G1 X76.805 Y104.595 E8.39249
G1 X76.803 Y103.534 E8.43483
G1 X76.816 Y103.005 E8.45595
G1 X76.869 Y101.954 E8.49795
G1 X76.959 Y100.904 E8.54002
G1 X77.082 Y99.884 E8.58102
G1 X77.246 Y98.814 E8.62423
G1 X77.447 Y97.783 E8.66615
G1 X77.56 Y97.266 E8.68727
G1 X77.806 Y96.274 E8.72806
G1 X78.1 Y95.232 E8.77128
G1 X78.256 Y94.727 E8.79237
G1 X78.6 Y93.729 E8.8345
G1 X78.974 Y92.747 E8.87644
G1 X79.384 Y91.775 E8.91855
G1 X79.829 Y90.819 E8.96064
G1 X80.303 Y89.877 E9.00272
G1 X80.812 Y88.957 E9.04469
G1 X81.354 Y88.052 E9.08679
G1 X81.636 Y87.607 E9.10782
G1 X82.222 Y86.732 E9.14985
G1 X82.528 Y86.303 E9.17088
G1 X83.159 Y85.459 E9.21294
G1 X83.821 Y84.638 E9.25503
G1 X84.51 Y83.842 E9.29705
G1 X84.867 Y83.451 E9.31819
G1 X85.598 Y82.691 E9.36027
G1 X86.365 Y81.947 E9.40292
G1 X87.136 Y81.253 E9.44432
G1 X87.94 Y80.572 E9.48638
G1 X88.771 Y79.922 E9.52848
G1 X89.618 Y79.301 E9.5704
G1 X90.055 Y79.001 E9.59156
G1 X90.938 Y78.423 E9.63368
G1 X91.838 Y77.88 E9.67563
G1 X92.758 Y77.369 E9.71764
G1 X93.226 Y77.122 E9.73876
G1 X94.173 Y76.658 E9.78085
G1 X95.119 Y76.234 E9.82222
G1 X95.652 Y76.011 E9.84528
G1 X96.604 Y75.643 E9.88602
G1 X97.599 Y75.299 E9.92804
G1 X98.603 Y74.99 E9.96996
G1 X99.143 Y74.837 E9.99237
G1 X100.137 Y74.59 E10.03324
G1 X101.167 Y74.367 E10.07531
G1 X102.201 Y74.182 E10.11723
G1 X102.751 Y74.098 E10.13944
G1 X103.772 Y73.971 E10.1805
G1 X104.82 Y73.878 E10.22249
G1 X105.875 Y73.82 E10.26467
G1 X106.925 Y73.8 E10.30658
G1 X107.453 Y73.803 E10.32765
G1 X108.503 Y73.837 E10.36958
G1 X109.033 Y73.868 E10.39077
G1 X110.082 Y73.958 E10.4328
G1 X111.099 Y74.079 E10.47367
G1 X111.65 Y74.158 E10.49589
G1 X112.688 Y74.339 E10.53794
G1 X113.72 Y74.557 E10.58004
G1 X114.712 Y74.803 E10.62083
G1 X115.754 Y75.095 E10.66402
G1 X116.291 Y75.262 E10.68647
G1 X116.399 Y75.418 E10.69404
G1 X116.398 Y121.285 E12.52469
M204 S3000
M205 X10 Y10
G0 F9000 X116.253 Y121.423
G1 F1800 E6.52469
G1 F480 Z0.315
G0 F9000 X124.206 Y143.519 Z0.315
M204 S2000
M205 X8 Y8
;TYPE:WALL-INNER
G1 F480 Z0.24
G1 F1800 E12.52469
G1 F2400 X124.451 Y143.402 E12.53553
G1 X135.529 Y143.4 E12.97768
G1 X135.87 Y143.586 E12.99318
G1 X136.036 Y143.84 E13.00529
G1 X136.034 Y145.4 E13.06755
G1 X138.488 Y145.4 E13.1655
G1 X138.488 Y125.232 E13.97045
G1 X138.488 Y124.871 E13.98485
G1 X138.093 Y124.72 E14.00173
G1 X137.101 Y124.589 E14.04167
G1 X137.1 Y129.238 E14.22722
G1 X136.982 Y129.511 E14.23909
G1 X136.673 Y129.751 E14.25471
G1 X126.071 Y129.75 E14.67786
G1 X125.706 Y129.493 E14.69567
G1 X125.603 Y129.212 E14.70762
G1 X125.6 Y78.776 E16.72063
G1 X125.724 Y78.483 E16.73333
G1 X125.909 Y78.324 E16.74306
G1 X126.2 Y78.249 E16.75506
G1 X136.5 Y78.25 E17.16615
G1 X136.86 Y78.37 E17.1813
G1 F2418.1 X137.097 Y78.85 E17.2025
G1 F2430.4 X137.097 Y79.46 E17.22654
G1 X137.403 Y79.252 E17.24113
G1 X137.492 Y79.009 E17.25133
G1 F2418.1 X137.488 Y72.1 E17.52501
G1 F2400 X130.128 Y72.1 E17.81877
G1 X129.383 Y71.576 E17.85512
G1 X128.811 Y71.189 E17.88268
G1 X128.232 Y70.811 E17.91028
G1 X127.681 Y70.464 E17.93627
G1 X127.091 Y70.108 E17.96377
G1 X126.496 Y69.763 E17.99122
G1 X125.859 Y69.408 E18.02033
G1 X125.29 Y69.102 E18.04611
G1 X124.682 Y68.791 E18.07337
G1 X123.437 Y68.193 E18.1285
G1 X122.811 Y67.912 E18.15588
G1 X121.542 Y67.381 E18.21079
G1 X120.905 Y67.135 E18.23804
G1 X120.226 Y66.887 E18.26689
G1 X119.607 Y66.672 E18.29305
G1 X118.953 Y66.457 E18.32052
G1 X118.297 Y66.254 E18.34793
G1 X117.63 Y66.06 E18.37566
G1 X116.973 Y65.882 E18.40282
G1 X116.272 Y65.707 E18.43166
G1 X115.599 Y65.55 E18.45924
G1 X114.895 Y65.399 E18.48798
G1 X114.29 Y65.281 E18.51258
G1 X113.613 Y65.16 E18.54003
G1 X112.893 Y65.044 E18.56914
G1 X112.253 Y64.952 E18.59494
G1 X111.534 Y64.863 E18.62386
G1 X110.851 Y64.79 E18.65127
G1 X110.167 Y64.728 E18.67869
G1 X109.519 Y64.68 E18.70462
G1 X108.145 Y64.617 E18.75952
G1 X107.416 Y64.602 E18.78862
G1 X106.731 Y64.601 E18.81596
G1 X106.048 Y64.612 E18.84322
G1 X104.75 Y64.664 E18.89507
G1 X103.986 Y64.715 E18.92563
G1 X103.301 Y64.774 E18.95307
G1 X102.62 Y64.844 E18.9804
G1 X101.975 Y64.922 E19.00633
G1 X100.584 Y65.126 E19.06244
G1 X99.888 Y65.247 E19.09063
G1 X99.224 Y65.375 E19.11762
G1 X98.55 Y65.517 E19.14511
G1 X97.916 Y65.661 E19.17106
G1 X97.215 Y65.835 E19.19989
G1 X96.544 Y66.013 E19.2276
G1 X95.887 Y66.2 E19.25486
G1 X95.225 Y66.401 E19.28248
G1 X94.572 Y66.612 E19.30986
G1 X93.926 Y66.833 E19.33711
G1 X93.274 Y67.068 E19.36478
G1 X92.637 Y67.311 E19.39199
G1 X92.031 Y67.554 E19.41805
G1 X91.363 Y67.836 E19.44699
G1 X90.733 Y68.115 E19.47449
G1 X89.567 Y68.665 E19.52594
G1 X88.886 Y69.011 E19.55643
G1 X88.271 Y69.337 E19.58421
G1 X87.669 Y69.669 E19.61165
G1 X87.103 Y69.993 E19.63768
G1 X86.482 Y70.364 E19.66655
G1 X85.351 Y71.08 E19.71998
G1 X84.754 Y71.481 E19.74868
G1 X84.179 Y71.881 E19.77664
G1 X83.111 Y72.669 E19.82961
G1 X82.539 Y73.114 E19.85853
G1 X81.998 Y73.55 E19.88627
G1 X80.981 Y74.413 E19.9395
G1 X80.468 Y74.872 E19.96698
G1 X79.936 Y75.366 E19.99595
G1 X79.47 Y75.814 E20.02175
G1 X78.503 Y76.792 E20.07664
G1 X77.544 Y77.833 E20.13314
G1 X77.094 Y78.349 E20.16046
G1 X76.239 Y79.38 E20.21392
G1 X75.792 Y79.95 E20.24283
G1 X75.378 Y80.497 E20.27021
G1 X74.969 Y81.056 E20.29786
G1 X74.578 Y81.613 E20.32502
G1 X74.194 Y82.181 E20.35238
G1 X73.812 Y82.765 E20.38024
G1 X73.47 Y83.309 E20.40588
G1 X73.093 Y83.934 E20.43501
G1 X72.432 Y85.093 E20.48827
G1 X72.107 Y85.699 E20.51571
G1 X71.796 Y86.309 E20.54304
G1 X71.492 Y86.929 E20.5706
G1 X71.181 Y87.589 E20.59972
G1 X70.904 Y88.21 E20.62686
G1 X70.632 Y88.845 E20.65443
G1 X70.386 Y89.447 E20.68039
G1 X70.138 Y90.088 E20.70782
G1 X69.892 Y90.761 E20.73642
G1 X69.661 Y91.424 E20.76444
G1 X69.258 Y92.691 E20.8175
G1 X69.063 Y93.359 E20.84528
G1 X68.876 Y94.051 E20.87389
G1 X68.708 Y94.719 E20.90138
G1 X68.56 Y95.352 E20.92733
G1 X68.41 Y96.049 E20.95578
G1 X68.162 Y97.378 E21.00974
G1 X68.052 Y98.055 E21.03712
G1 X67.95 Y98.769 E21.0659
G1 X67.864 Y99.457 E21.09357
G1 X67.791 Y100.137 E21.12087
G1 X67.729 Y100.821 E21.14828
G1 X67.681 Y101.469 E21.17422
G1 X67.643 Y102.156 E21.20168
G1 X67.617 Y102.843 E21.22912
G1 X67.603 Y103.566 E21.25798
G1 X67.6 Y104.26 E21.28568
G1 X67.611 Y104.943 E21.31294
G1 X67.634 Y105.632 E21.34046
G1 X67.668 Y106.31 E21.36755
G1 X67.714 Y107.005 E21.39535
G1 X67.773 Y107.688 E21.42271
G1 X67.843 Y108.365 E21.44988
G1 X67.928 Y109.074 E21.47838
G1 X68.124 Y110.404 E21.53203
G1 X68.243 Y111.096 E21.56006
G1 X68.373 Y111.769 E21.58742
G1 X68.514 Y112.438 E21.6147
G1 X68.667 Y113.11 E21.64221
G1 X68.95 Y114.224 E21.68809
G1 X69.186 Y115.068 E21.72306
G1 X69.397 Y115.765 E21.75213
G1 X69.83 Y117.066 E21.80686
G1 X70.064 Y117.714 E21.83435
G1 X70.308 Y118.352 E21.86162
G1 X70.817 Y119.591 E21.91508
G1 X71.11 Y120.254 E21.94401
G1 X71.4 Y120.883 E21.97165
G1 X71.701 Y121.503 E21.99916
G1 X72.006 Y122.103 E22.02602
G1 X72.664 Y123.323 E22.08135
G1 X73.005 Y123.916 E22.10865
G1 X73.358 Y124.507 E22.13613
G1 X74.025 Y125.566 E22.18608
G1 X74.475 Y126.237 E22.21832
G1 X74.872 Y126.807 E22.24605
G1 X75.272 Y127.358 E22.27322
G1 X75.686 Y127.909 E22.30073
G1 X76.109 Y128.454 E22.32827
G1 X76.543 Y128.994 E22.35592
G1 X76.979 Y129.515 E22.38303
G1 X77.862 Y130.521 E22.43646
G1 X78.362 Y131.058 E22.46574
G1 X78.841 Y131.556 E22.49332
G1 X79.324 Y132.041 E22.52064
G1 X79.783 Y132.488 E22.54621
G1 X80.285 Y132.96 E22.57371
G1 X80.792 Y133.419 E22.60101
G1 X81.311 Y133.872 E22.6285
G1 X82.371 Y134.753 E22.68351
G1 X82.961 Y135.216 E22.71345
G1 X83.516 Y135.636 E22.74123
G1 X84.057 Y136.03 E22.76794
G1 X84.641 Y136.441 E22.79644
G1 X85.779 Y137.196 E22.85095
G1 X86.299 Y137.523 E22.87546
G1 X87.485 Y138.226 E22.93049
G1 X88.083 Y138.562 E22.95787
G1 X88.689 Y138.887 E22.98531
G1 X89.299 Y139.199 E23.01266
G1 X89.979 Y139.532 E23.04288
G1 X90.54 Y139.796 E23.06763
G1 X91.169 Y140.078 E23.09514
G1 X91.799 Y140.349 E23.12251
G1 X92.437 Y140.609 E23.15001
G1 X93.122 Y140.874 E23.17932
G1 X94.371 Y141.32 E23.23226
G1 X95.025 Y141.535 E23.25973
G1 X95.681 Y141.739 E23.28715
G1 X96.348 Y141.933 E23.31488
G1 X97.218 Y142.167 E23.35083
G1 X97.906 Y142.077 E23.37853
G1 X98.423 Y141.656 E23.40514
G1 X98.605 Y141.392 E23.41794
G1 X103.489 Y130.934 E23.87861
G1 X103.728 Y130.714 E23.89158
G1 X103.92 Y130.65 E23.89965
G1 X110.079 Y130.65 E24.14547
G1 X110.503 Y130.922 E24.16558
G1 X115.436 Y141.484 E24.63084
G1 X115.737 Y141.821 E24.64888
G1 X116.109 Y142.046 E24.66623
G1 X116.625 Y142.156 E24.68729
G1 X117.128 Y142.142 E24.70737
G1 X117.497 Y142.391 E24.72514
G1 X117.6 Y142.729 E24.73924
G1 X117.6 Y145.4 E24.84585
G1 X123.965 Y145.4 E25.09989
G1 X123.966 Y143.853 E25.16163
G1 X124.206 Y143.519 E25.17805
M204 S3000
M205 X10 Y10
G0 F9000 X124.366 Y143.953
M204 S2000
M205 X8 Y8
;TYPE:WALL-OUTER
G1 F2400 X124.517 Y143.805 E25.18648
G1 X135.479 Y143.804 E25.624
G1 X135.636 Y144.001 E25.63406
G1 X135.634 Y145.8 E25.70586
G1 X138.888 Y145.8 E25.83573
G1 X138.888 Y125.232 E26.65665
G1 X138.888 Y124.595 E26.68207
G1 X138.191 Y124.329 E26.71185
G1 X137.215 Y124.201 E26.75113
G1 X136.701 Y124.201 E26.77165
G1 X136.698 Y129.185 E26.97057
G1 X136.557 Y129.351 E26.97926
G1 X126.165 Y129.348 E27.39403
G1 X126.006 Y129.203 E27.40262
G1 X126.002 Y78.815 E29.41371
G1 X126.121 Y78.649 E29.42186
G1 X136.6 Y78.65 E29.8401
G1 X136.7 Y78.85 E29.84903
G1 X136.7 Y79.888 E29.89046
G1 X137.078 Y79.888 E29.90554
G1 X137.463 Y79.753 E29.92183
