;FLAVOR:Marlin
;TIME:72
;Filament used: 0.0152317m
;Layer height: 0.12
;MINX:101.485
;MINY:101.485
;MINZ:0.24
;MAXX:108.515
;MAXY:108.515
;MAXZ:1.035
;Generated with Cura_SteamEngine 5.2.1
M82 ;absolute extrusion mode
;Profil Homepage: https://github.com/NilsRo/Cura_Anycubic_MegaS_Profile

;Slicer Information - (Support for OctoPrint Slicer Estimator)
;Slicer info:material_guid;0ff92885-617b-4144-a03c-9989872454bc
;Slicer info:material_id;generic_pla_175
;Slicer info:material_brand;Generic
;Slicer info:material_name;PLA
;Slicer info:filament_cost;[0.0]
;Slicer info:material_bed_temperature;50.0
;Slicer info:material_bed_temperature_layer_0;60.0
;Slicer info:material_print_temperature;200.0
;Slicer info:material_print_temperature_layer_0;205.0
;Slicer info:material_flow;100
;Slicer info:layer_height;0.12
;Slicer info:machine_nozzle_size;0.4
;Slicer info:wall_thickness;1.2000000000000002
;Slicer info:speed_print;70.0
;Slicer info:speed_topbottom;50.0
;Slicer info:travel_speed;150.0
;Slicer info:support;0
;Slicer info:retraction_speed;30
;Slicer info:retraction_amount;6
;Slicer info:layer_height;0.12
;Slicer info:infill_pattern;grid
;Slicer info:infill_sparse_density;25.0
;Slicer info:cool_fan_enabled;True
;Slicer info:cool_fan_speed;100
;Slicer info:sliced_at;Mon 30-09-2024 19:18:51
G21                                        ; metric values 
G90                                        ; absolute positioning 
M82                                        ; set extruder to absolute mode 
M107                                       ; start with the fan off 
M140 S60.0   ; Start heating the bed 
G4 S60                                     ; wait 1 minute 
M104 S205.0 ; start heating the hot end 
M190 S60.0   ; wait for bed 
M109 S205.0 ; wait for hotend 
M300 S1000 P500                            ; BEEP heating done 
G28 X0 Y10 Z0                              ; move X/Y to min endstops 
M420 S1                                    ; Enable leveling 
M420 Z2.0                                  ; Set leveling fading height to 2 mm 
G0 Z0.15                                   ; lift nozzle a bit 
G92 E0                                     ; zero the extruded length 
G1 X50 E20 F500                            ; Extrude 20mm of filament in a 5cm line. 
G92 E0                                     ; zero the extruded length again 
G1 E-2 F500                                ; Retract a little 
G1 X50 F500                                ; wipe away from the filament line
G1 X100 F9000                              ; Quickly wipe away from the filament line
G92 E0
G92 E0
G1 F1800 E-6
;LAYER_COUNT:7
;LAYER:0
M106 S76.5
M204 S3000
M205 X10 Y10
G1 F480 Z0.315
;MESH:LAB-001-030-140_00.STL
G0 F9000 X101.903 Y104.96 Z0.315
M204 S2000
M205 X8 Y8
;TYPE:WALL-INNER
G1 F480 Z0.24
G1 F1800 E0
G1 F709.8 X101.984 Y105.837 E0.03515
G1 X102.426 Y106.764 E0.07614
G1 X102.93 Y107.304 E0.10562
G1 X103.403 Y107.654 E0.12911
G1 X104.08 Y107.983 E0.15915
G1 X104.957 Y108.096 E0.19444
G1 X105.828 Y108.018 E0.22934
G1 X106.6 Y107.652 E0.26344
G1 X107.204 Y107.204 E0.29346
G1 X107.655 Y106.597 E0.32364
G1 X107.983 Y105.92 E0.35367
G1 X108.096 Y105.04 E0.38908
G1 X108.043 Y104.452 E0.41264
G1 X107.913 Y103.949 E0.43338
G1 X107.574 Y103.236 E0.46489
G1 X107.07 Y102.696 E0.49437
G1 X106.597 Y102.346 E0.51785
G1 X105.92 Y102.017 E0.54789
G1 X105.043 Y101.904 E0.58319
G1 X104.165 Y101.984 E0.61837
G1 X103.236 Y102.426 E0.65944
G1 X102.696 Y102.93 E0.68892
G1 X102.346 Y103.403 E0.7124
G1 X102.016 Y104.079 E0.74243
G1 X101.903 Y104.96 E0.77788
M204 S3000
M205 X10 Y10
G0 F9000 X101.501 Y104.953
M204 S2000
M205 X8 Y8
;TYPE:WALL-OUTER
G1 F709.8 X101.567 Y105.672 E0.80669
G1 X101.71 Y106.191 E0.82818
G1 X102.091 Y106.992 E0.86358
G1 X102.662 Y107.604 E0.89699
G1 X103.195 Y107.998 E0.92344
G1 X103.964 Y108.372 E0.95757
G1 X104.949 Y108.498 E0.99721
G1 X105.674 Y108.433 E1.02626
G1 X106.189 Y108.289 E1.0476
G1 X106.807 Y107.996 E1.0749
G1 X107.49 Y107.49 E1.10883
G1 X107.998 Y106.805 E1.14286
G1 X108.372 Y106.036 E1.17699
G1 X108.498 Y105.047 E1.21679
G1 X108.441 Y104.416 E1.24207
G1 X108.433 Y104.326 E1.24568
G1 X108.289 Y103.809 E1.2671
G1 X107.909 Y103.008 E1.30248
G1 X107.338 Y102.396 E1.33589
G1 X106.805 Y102.002 E1.36234
G1 X106.036 Y101.628 E1.39647
G1 X105.051 Y101.502 E1.43611
G1 X104.326 Y101.567 E1.46516
G1 X103.809 Y101.711 E1.48658
G1 X103.008 Y102.091 E1.52197
G1 X102.396 Y102.662 E1.55537
G1 X102.002 Y103.195 E1.58183
G1 X101.628 Y103.963 E1.61592
G1 X101.501 Y104.953 E1.65576
M204 S3000
M205 X10 Y10
G0 F9000 X101.519 Y105.152
G1 F1800 E-4.34424
G1 F480 Z0.315
G0 F9000 X103.526 Y106.213 Z0.315
M204 S2000
M205 X8 Y8
;TYPE:WALL-INNER
G1 F480 Z0.24
G1 F1800 E1.65576
G1 F709.8 X103.164 Y105.548 E1.68598
G1 X103.125 Y104.688 E1.72034
G1 X103.286 Y104.166 E1.74214
G1 X103.819 Y103.515 E1.77572
G1 X104.011 Y103.385 E1.78497
G1 X104.593 Y103.132 E1.8103
G1 X105.256 Y103.117 E1.83677
G1 X105.829 Y103.279 E1.86054
G1 X106.565 Y103.889 E1.89869
G1 X106.868 Y104.608 E1.92983
G1 X106.885 Y105.256 E1.9557
G1 X106.731 Y105.791 E1.97792
G1 X106.384 Y106.323 E2.00327
G1 X105.579 Y106.832 E2.04129
G1 X104.653 Y106.883 E2.0783
G1 X103.995 Y106.613 E2.10669
G1 X103.526 Y106.213 E2.13129
M204 S3000
M205 X10 Y10
G1 F1800 E-3.86871
G1 F480 Z0.315
G0 F9000 X105.461 Y106.437 Z0.315
M204 S2000
M205 X8 Y8
;TYPE:WALL-OUTER
G1 F480 Z0.24
G1 F1800 E2.13129
G1 F709.8 X104.715 Y106.476 E2.16111
G1 X104.183 Y106.26 E2.18402
G1 X103.846 Y105.964 E2.20193
G1 X103.559 Y105.438 E2.22584
G1 X103.529 Y104.707 E2.25504
G1 X103.638 Y104.369 E2.26922
G1 X104.114 Y103.789 E2.29916
G1 X104.171 Y103.752 E2.30188
G1 X104.683 Y103.529 E2.32416
G1 X105.205 Y103.514 E2.34501
G1 X105.645 Y103.647 E2.36335
G1 X106.231 Y104.13 E2.39366
G1 X106.471 Y104.683 E2.41772
G1 X106.487 Y105.205 E2.43857
G1 X106.37 Y105.615 E2.45558
G1 X106.073 Y106.046 E2.47647
G1 X105.461 Y106.437 E2.50546
M204 S3000
M205 X10 Y10
G0 F9000 X105.262 Y106.447
G1 F1800 E-3.49454
G1 F480 Z0.315
G0 F9000 X102.368 Y105.733 Z0.315
M204 S2000
M205 X8 Y8
;TYPE:SKIN
G1 F480 Z0.24
G1 F1800 E2.50546
G1 F668.1 X102.758 Y106.539 E2.54343
G1 F664.9 X103.194 Y107.012 E2.57084
G1 F677.6 X103.603 Y107.319 E2.59222
G1 F669.6 X104.195 Y107.597 E2.61989
G1 F657.2 X104.966 Y107.697 E2.6534
G1 X105.704 Y107.636 E2.68532
G1 F654.2 X106.396 Y107.307 E2.7185
G1 F666.5 X106.928 Y106.924 E2.74637
G1 F674.4 X107.317 Y106.392 E2.77405
G1 F658.8 X107.596 Y105.806 E2.80196
G1 X107.7 Y105.028 E2.83572
G1 F679.2 X107.661 Y104.515 E2.85718
G1 F676 X107.632 Y104.319 E2.86548
G1 F660.3 X107.629 Y104.282 E2.86707
G1 F661.8 X107.241 Y103.438 E2.90684
G1 F654.2 X106.8 Y102.992 E2.934
G1 F655.7 X106.396 Y102.686 E2.9559
G1 F658.8 X105.806 Y102.404 E2.98402
G1 X105.035 Y102.301 E3.01747
G1 F664.9 X104.316 Y102.354 E3.04819
G1 X103.433 Y102.762 E3.08963
G1 F655.7 X102.992 Y103.2 E3.11648
G1 X102.686 Y103.604 E3.13838
G1 F658.8 X102.403 Y104.194 E3.16652
G1 F652.7 X102.303 Y104.97 E3.20048
G1 F664.9 X102.368 Y105.733 E3.23311
M204 S3000
M205 X10 Y10
G1 F1800 E-2.76689
G1 F480 Z0.315
G0 F9000 X102.941 Y103.986 Z0.315
M204 S2000
M205 X8 Y8
G1 F480 Z0.24
G1 F1800 E3.23311
G1 F669.6 X103.325 Y103.487 E3.25975
G1 F664.9 X103.672 Y103.109 E3.28161
G1 F684.2 X104.477 Y102.753 E3.31806
G1 F689.1 X105.243 Y102.721 E3.34957
M104 S200
G1 F690.8 X106.05 Y102.96 E3.38409
G1 F668.1 X106.512 Y103.326 E3.40908
G1 F663.4 X106.896 Y103.678 E3.43133
G1 F685.8 X107.252 Y104.498 E3.46826
G1 F695.9 X107.267 Y105.302 E3.501
G1 F697.6 X107.065 Y106.004 E3.53066
G1 F689.1 X106.659 Y106.602 E3.56038
G1 X105.925 Y107.098 E3.59679
G1 F677.6 X105.54 Y107.224 E3.61373
G1 F676 X104.578 Y107.29 E3.65414
G1 F689.1 X103.764 Y106.935 E3.69065
G1 F685.8 X103.187 Y106.425 E3.72246
G1 F674.4 X102.781 Y105.651 E3.75917
G1 X102.725 Y104.713 E3.79865
G1 F687.5 X102.941 Y103.986 E3.8299
M204 S3000
M205 X10 Y10
;MESH:NONMESH
G0 F480 X102.941 Y103.986 Z0.36
G0 F9000 X102.318 Y105.271
;TIME_ELAPSED:16.639183
;LAYER:1
M140 S50
M106 S136
M204 S2000
M205 X8 Y8
;TYPE:WALL-INNER
;MESH:LAB-001-030-140_00.STL
G1 F718.2 X102.441 Y105.845 E3.84164
G1 F709.4 X102.635 Y106.316 E3.85196
G1 F704.2 X103.059 Y106.898 E3.86666
G1 X103.753 Y107.406 E3.8842
G1 F711.1 X104.468 Y107.642 E3.89942
G1 F720 X105.271 Y107.682 E3.91546
G1 F705.9 X105.845 Y107.552 E3.92744
G1 F695.7 X106.349 Y107.355 E3.93862
G1 F692.3 X106.91 Y106.91 E3.95348
G1 F704.2 X107.391 Y106.296 E3.9694
G1 F725.4 X107.645 Y105.529 E3.9854
G1 X107.685 Y104.748 E4.00089
G1 F711.1 X107.554 Y104.156 E4.01314
G1 F699 X107.355 Y103.651 E4.0243
G1 F694 X106.911 Y103.089 E4.03913
G1 F705.9 X106.297 Y102.61 E4.05498
G1 F725.4 X105.534 Y102.356 E4.0709
G1 X104.729 Y102.316 E4.08687
G1 F711.1 X104.154 Y102.446 E4.09878
G1 F699 X103.645 Y102.647 E4.11003
G1 F694 X103.089 Y103.089 E4.12473
G1 F699 X102.591 Y103.735 E4.1415
G1 F709.4 X102.36 Y104.472 E4.15714
G1 F712.9 X102.318 Y105.271 E4.17327
M204 S3000
M205 X10 Y10
G0 F9000 X101.919 Y105.319
M204 S2000
M205 X8 Y8
G1 F720 X102.056 Y105.963 E4.18641
G1 X102.279 Y106.517 E4.19833
G1 X102.797 Y107.203 E4.21548
G1 X103.544 Y107.768 E4.23417
G1 X104.38 Y108.034 E4.25168
G1 X105.319 Y108.081 E4.27044
G1 X105.965 Y107.944 E4.28362
G1 X106.517 Y107.722 E4.29549
G1 X107.203 Y107.203 E4.31266
G1 X107.765 Y106.461 E4.33124
G1 X108.036 Y105.615 E4.34896
G1 X108.084 Y104.736 E4.36653
G1 X108.082 Y104.682 E4.36761
G1 X107.944 Y104.037 E4.38077
G1 X107.722 Y103.483 E4.39268
G1 X107.203 Y102.797 E4.40985
G1 X106.459 Y102.233 E4.42848
G1 X105.62 Y101.966 E4.44605
G1 X104.681 Y101.918 E4.46482
G1 X104.035 Y102.056 E4.478
G1 X103.483 Y102.279 E4.48988
G1 X102.797 Y102.797 E4.50703
G1 X102.232 Y103.544 E4.52572
G1 X101.964 Y104.385 E4.54334
G1 X101.919 Y105.319 E4.562
M204 S3000
M205 X10 Y10
G0 F9000 X101.52 Y105.367
M204 S2000
M205 X8 Y8
;TYPE:WALL-OUTER
G1 F600 X101.672 Y106.08 E4.57655
G1 X101.927 Y106.716 E4.59022
G1 X102.511 Y107.489 E4.60956
G1 X103.143 Y107.967 E4.62537
G1 X103.586 Y108.201 E4.63537
G1 X104.293 Y108.426 E4.65017
G1 X104.838 Y108.496 E4.66114
G1 X105.367 Y108.48 E4.6717
G1 X106.082 Y108.328 E4.68629
G1 X106.716 Y108.073 E4.69992
G1 X107.489 Y107.489 E4.71926
G1 X107.971 Y106.851 E4.73521
G1 X108.201 Y106.412 E4.74511
G1 X108.428 Y105.701 E4.76
G1 X108.496 Y105.16 E4.77088
G1 X108.484 Y104.724 E4.77958
G1 X108.48 Y104.634 E4.78138
G1 X108.328 Y103.92 E4.79595
G1 X108.073 Y103.284 E4.80962
G1 X107.489 Y102.511 E4.82896
G1 X106.857 Y102.033 E4.84477
G1 X106.414 Y101.799 E4.85477
G1 X105.707 Y101.574 E4.86958
G1 X105.162 Y101.504 E4.88054
G1 X104.633 Y101.52 E4.8911
G1 X103.918 Y101.672 E4.90569
G1 X103.284 Y101.927 E4.91933
G1 X102.511 Y102.511 E4.93866
G1 X101.872 Y103.357 E4.95982
G1 X101.572 Y104.299 E4.97955
G1 X101.504 Y104.84 E4.99043
G1 X101.52 Y105.367 E5.00095
M204 S3000
M205 X10 Y10
G0 F9000 X101.561 Y105.562
G1 F1800 E-0.99905
G1 F480 Z0.435
G0 F9000 X106.957 Y106.207 Z0.435
M204 S2000
M205 X8 Y8
;TYPE:WALL-INNER
G1 F480 Z0.36
G1 F1800 E5.00095
G1 F704.2 X106.619 Y106.607 E5.01164
G1 F697.3 X106.122 Y107.011 E5.02483
G1 F716.4 X105.127 Y107.321 E5.04574
G1 F723.6 X104.239 Y107.185 E5.06357
G1 F718.2 X103.341 Y106.622 E5.08478
G1 F712.9 X102.867 Y105.918 E5.10188
G1 F721.8 X102.682 Y105.069 E5.11918
G1 F731 X102.825 Y104.261 E5.13531
G1 F725.4 X103.045 Y103.791 E5.14559
G1 F702.4 X103.38 Y103.393 E5.15623
G1 X103.962 Y102.92 E5.17157
G1 F721.8 X104.768 Y102.712 E5.18814
G1 F727.3 X105.484 Y102.74 E5.2023
G1 F725.4 X106.222 Y103.054 E5.21818
G1 F704.2 X106.607 Y103.38 E5.22848
G1 F699 X107.011 Y103.877 E5.24164
G1 F723.6 X107.268 Y104.642 E5.25766
G1 F731 X107.29 Y104.82 E5.26119
G1 F729.1 X107.261 Y105.481 E5.27423
G1 F727.3 X106.957 Y106.207 E5.28978
M204 S3000
M205 X10 Y10
G1 F1800 E-0.71022
G1 F480 Z0.435
G0 F9000 X104.037 Y103.347 Z0.435
M204 S2000
M205 X8 Y8
G1 F480 Z0.36
G1 F1800 E5.28978
G1 F720 X104.75 Y103.108 E5.30479
G1 X105.4 Y103.133 E5.31777
G1 X106.094 Y103.43 E5.33283
G1 X106.654 Y104.035 E5.34928
G1 X106.881 Y104.725 E5.36378
G1 X106.892 Y104.832 E5.36593
G1 X106.867 Y105.398 E5.37723
G1 X106.569 Y106.097 E5.3924
G1 X105.959 Y106.657 E5.40892
G1 X105.128 Y106.903 E5.42622
G1 X104.451 Y106.836 E5.43979
G1 X103.615 Y106.323 E5.45937
G1 X103.234 Y105.712 E5.47374
G1 X103.091 Y105.07 E5.48686
G1 X103.203 Y104.381 E5.50079
G1 X103.473 Y103.864 E5.51243
G1 X104.037 Y103.347 E5.5277
M204 S3000
M205 X10 Y10
G1 F1800 E-0.4723
G1 F480 Z0.435
G0 F9000 X104.572 Y106.44 Z0.435
M204 S2000
M205 X8 Y8
;TYPE:WALL-OUTER
G1 F480 Z0.36
G1 F1800 E5.5277
G1 F600 X103.912 Y106.034 E5.54316
G1 X103.617 Y105.594 E5.55373
G1 X103.498 Y105.061 E5.56463
G1 X103.584 Y104.503 E5.5759
G1 X103.772 Y104.137 E5.58411
G1 X104.237 Y103.704 E5.59679
G1 X104.834 Y103.508 E5.60933
G1 X105.324 Y103.535 E5.61912
G1 X105.851 Y103.76 E5.63056
G1 X106.3 Y104.24 E5.64368
G1 X106.489 Y104.809 E5.65564
G1 X106.492 Y104.844 E5.65634
G1 X106.465 Y105.324 E5.66594
G1 X106.237 Y105.858 E5.67752
G1 X105.757 Y106.301 E5.69056
G1 X105.091 Y106.496 E5.70441
G1 X104.572 Y106.44 E5.71482
M204 S3000
M205 X10 Y10
G0 F9000 X104.402 Y106.336
G1 F1800 E-0.28518
G1 F480 Z0.435
;MESH:NONMESH
G0 F9000 X101.873 Y105.101 Z0.435
;TIME_ELAPSED:26.715482
;LAYER:2
M106 S195.5
;MESH:LAB-001-030-140_00.STL
G0 X101.873 Y105.101 Z0.555
M204 S2000
M205 X8 Y8
;TYPE:WALL-INNER
G1 F480 Z0.48
G1 F1800 E5.71482
G1 F857.1 X102.056 Y105.96 E5.73235
G1 X102.293 Y106.536 E5.74478
G1 X102.797 Y107.203 E5.76146
G1 X103.493 Y107.729 E5.77887
G1 X104.337 Y108.024 E5.79672
G1 X105.103 Y108.126 E5.81214
G1 X105.962 Y107.945 E5.82966
G1 X106.536 Y107.707 E5.84206
G1 X107.203 Y107.203 E5.85874
G1 X107.729 Y106.507 E5.87615
G1 X108.026 Y105.66 E5.89406
G1 X108.095 Y105.131 E5.90471
G1 X108.084 Y104.735 E5.91261
G1 X108.082 Y104.682 E5.91367
G1 X107.945 Y104.04 E5.92677
G1 X107.707 Y103.464 E5.93921
G1 X107.203 Y102.797 E5.95589
G1 X106.507 Y102.271 E5.9733
G1 X105.663 Y101.976 E5.99114
G1 X104.897 Y101.873 E6.00657
G1 X104.038 Y102.056 E6.02409
G1 X103.464 Y102.293 E6.03649
G1 X102.797 Y102.797 E6.05317
G1 X102.271 Y103.493 E6.07058
G1 X101.975 Y104.34 E6.08849
G1 X101.873 Y105.101 E6.10381
M204 S3000
M205 X10 Y10
G0 F9000 X101.52 Y105.366
M204 S2000
M205 X8 Y8
;TYPE:WALL-OUTER
G1 F600 X101.672 Y106.079 E6.11836
G1 X101.943 Y106.736 E6.13254
G1 X102.511 Y107.489 E6.15136
G1 X103.302 Y108.086 E6.17114
G1 X104.243 Y108.415 E6.19103
G1 X104.847 Y108.496 E6.20319
G1 X105.366 Y108.48 E6.21356
G1 X106.081 Y108.329 E6.22814
G1 X106.736 Y108.057 E6.24229
G1 X107.489 Y107.489 E6.26112
G1 X108.086 Y106.698 E6.28089
G1 X108.417 Y105.753 E6.30087
G1 X108.496 Y105.151 E6.31299
G1 X108.484 Y104.723 E6.32153
G1 X108.48 Y104.634 E6.32331
G1 X108.329 Y103.921 E6.33786
G1 X108.057 Y103.264 E6.35205
G1 X107.489 Y102.511 E6.37087
G1 X106.698 Y101.914 E6.39065
G1 X105.757 Y101.585 E6.41054
G1 X105.153 Y101.504 E6.4227
G1 X104.634 Y101.52 E6.43306
G1 X103.919 Y101.672 E6.44765
G1 X103.264 Y101.943 E6.4618
G1 X102.511 Y102.511 E6.48062
G1 X101.914 Y103.302 E6.5004
G1 X101.583 Y104.247 E6.52038
G1 X101.504 Y104.849 E6.53249
G1 X101.52 Y105.366 E6.54282
M204 S3000
M205 X10 Y10
G0 F9000 X101.561 Y105.561
G1 F1800 E0.54282
G1 F480 Z0.555
G0 F9000 X104.747 Y103.107 Z0.555
M204 S2000
M205 X8 Y8
;TYPE:WALL-INNER
G1 F480 Z0.48
G1 F1800 E6.54282
G1 F857.1 X105.419 Y103.136 E6.55624
G1 X106.165 Y103.493 E6.57274
G1 X106.626 Y103.996 E6.58636
G1 X106.895 Y104.764 E6.6026
G1 X106.866 Y105.414 E6.61558
G1 X106.507 Y106.165 E6.63219
G1 X106.022 Y106.611 E6.64534
