;FLAVOR:Marlin
;TIME:141
;Filament used: 0.0497273m
;Layer height: 0.12
;MINX:97.701
;MINY:101.2
;MINZ:0.24
;MAXX:112.299
;MAXY:108.8
;MAXZ:1.515
;Generated with Cura_SteamEngine 5.2.1
M82 ;absolute extrusion mode
;Profil Homepage: https://github.com/NilsRo/Cura_Anycubic_MegaS_Profile

;Slicer Information - (Support for OctoPrint Slicer Estimator)
;Slicer info:material_guid;0ff92885-617b-4144-a03c-9989872454bc
;Slicer info:material_id;generic_pla_175
;Slicer info:material_brand;Generic
;Slicer info:material_name;PLA
;Slicer info:filament_cost;[0.0]
;Slicer info:material_bed_temperature;50.0
;Slicer info:material_bed_temperature_layer_0;60.0
;Slicer info:material_print_temperature;200.0
;Slicer info:material_print_temperature_layer_0;205.0
;Slicer info:material_flow;100
;Slicer info:layer_height;0.12
;Slicer info:machine_nozzle_size;0.4
;Slicer info:wall_thickness;1.2000000000000002
;Slicer info:speed_print;70.0
;Slicer info:speed_topbottom;50.0
;Slicer info:travel_speed;150.0
;Slicer info:support;0
;Slicer info:retraction_speed;30
;Slicer info:retraction_amount;6
;Slicer info:layer_height;0.12
;Slicer info:infill_pattern;grid
;Slicer info:infill_sparse_density;25.0
;Slicer info:cool_fan_enabled;True
;Slicer info:cool_fan_speed;100
;Slicer info:sliced_at;Mon 30-09-2024 19:17:56
G21                                        ; metric values 
G90                                        ; absolute positioning 
M82                                        ; set extruder to absolute mode 
M107                                       ; start with the fan off 
M140 S60.0   ; Start heating the bed 
G4 S60                                     ; wait 1 minute 
M104 S205.0 ; start heating the hot end 
M190 S60.0   ; wait for bed 
M109 S205.0 ; wait for hotend 
M300 S1000 P500                            ; BEEP heating done 
G28 X0 Y10 Z0                              ; move X/Y to min endstops 
M420 S1                                    ; Enable leveling 
M420 Z2.0                                  ; Set leveling fading height to 2 mm 
G0 Z0.15                                   ; lift nozzle a bit 
G92 E0                                     ; zero the extruded length 
G1 X50 E20 F500                            ; Extrude 20mm of filament in a 5cm line. 
G92 E0                                     ; zero the extruded length again 
G1 E-2 F500                                ; Retract a little 
G1 X50 F500                                ; wipe away from the filament line
G1 X100 F9000                              ; Quickly wipe away from the filament line
G92 E0
G92 E0
G1 F1800 E-6
;LAYER_COUNT:11
;LAYER:0
M106 S76.5
M204 S3000
M205 X10 Y10
G1 F480 Z0.315
;MESH:LAB-001-030-130_00.STL
G0 F9000 X103.48 Y103.917 Z0.315
M204 S2000
M205 X8 Y8
;TYPE:WALL-INNER
G1 F480 Z0.24
G1 F1800 E0
G1 F2103.7 X104.189 Y103.32 E0.03699
G1 X104.836 Y103.153 E0.06366
G1 X110.127 Y103.151 E0.27484
G1 X110.809 Y103.343 E0.30312
G1 X111.249 Y103.638 E0.32426
G1 X111.614 Y104.105 E0.34792
G1 F1886.7 X111.851 Y104.606 E0.37258
G1 F1874.1 X111.895 Y104.242 E0.38901
G1 F2088 X111.899 Y102.978 E0.43983
G1 F2103.7 X111.899 Y102.897 E0.44307
G1 X111.747 Y102.376 E0.46473
G1 X111.586 Y102.129 E0.4765
G1 X111.074 Y101.738 E0.50221
G1 X110.565 Y101.606 E0.5232
G1 X99.272 Y101.602 E0.97392
G1 X98.663 Y101.886 E1.00074
G1 X98.45 Y102.084 E1.01235
G1 X98.164 Y102.607 E1.03614
G1 X98.101 Y102.976 E1.05108
G1 X98.102 Y107.011 E1.21213
G1 X98.18 Y107.437 E1.22941
G1 X98.489 Y107.952 E1.25338
G1 X98.837 Y108.22 E1.27091
G1 X99.446 Y108.395 E1.29621
G1 X110.515 Y108.399 E1.73799
G1 X110.89 Y108.336 E1.75317
G1 X111.385 Y108.066 E1.77567
G1 X111.762 Y107.573 E1.80044
G1 X111.895 Y107.064 E1.82144
G1 X111.896 Y105.853 E1.86978
G1 F1952.4 X111.866 Y105.258 E1.8954
G1 F1886.7 X111.599 Y105.955 E1.92861
G1 F2027.6 X111.007 Y106.577 E1.96417
G1 F2103.7 X110.145 Y106.848 E2.00023
G1 X104.914 Y106.848 E2.20901
G1 X104.329 Y106.737 E2.23278
G1 X103.663 Y106.308 E2.2644
G1 X103.174 Y105.424 E2.30472
G1 X103.205 Y104.563 E2.33911
G1 X103.48 Y103.917 E2.36713
M204 S3000
M205 X10 Y10
G1 F1800 E-3.63287
G1 F480 Z0.315
G0 F9000 X97.781 Y102.474 Z0.315
M204 S2000
M205 X8 Y8
;TYPE:WALL-OUTER
G1 F480 Z0.24
G1 F1800 E2.36713
G1 F2103.7 X97.701 Y102.942 E2.38608
G1 X97.702 Y107.047 E2.54992
G1 X97.8 Y107.58 E2.57155
G1 X98.184 Y108.223 E2.60144
G1 X98.653 Y108.584 E2.62506
G1 X99.39 Y108.795 E2.65566
G1 X110.549 Y108.799 E3.10104
G1 X111.022 Y108.719 E3.12018
G1 X111.651 Y108.377 E3.14876
G1 X112.129 Y107.752 E3.18016
G1 X112.295 Y107.116 E3.2064
G1 X112.299 Y102.979 E3.37152
G1 X112.299 Y102.839 E3.3771
G1 X112.114 Y102.208 E3.40335
G1 X111.884 Y101.853 E3.42023
G1 X111.252 Y101.371 E3.45195
G1 X110.616 Y101.206 E3.47818
G1 X99.184 Y101.202 E3.93445
G1 X98.437 Y101.55 E3.96734
G1 X98.13 Y101.836 E3.98409
G1 X97.781 Y102.474 E4.01312
M204 S3000
M205 X10 Y10
G0 F9000 X97.748 Y102.671
G1 F1800 E-1.98688
G1 F480 Z0.315
G0 F9000 X110.782 Y106.228 Z0.315
M204 S2000
M205 X8 Y8
G1 F480 Z0.24
G1 F1800 E4.01312
G1 F2103.7 X110.101 Y106.446 E4.04165
G1 X104.914 Y106.448 E4.24868
G1 X104.479 Y106.358 E4.26641
G1 X103.964 Y106.025 E4.29089
G1 X103.581 Y105.333 E4.32245
G1 X103.6 Y104.625 E4.35072
G1 X103.811 Y104.161 E4.37107
G1 X104.344 Y103.713 E4.39886
G1 X104.874 Y103.555 E4.42093
G1 X110.072 Y103.551 E4.62839
G1 X110.694 Y103.727 E4.65419
G1 X111.005 Y103.955 E4.66958
G1 X111.288 Y104.337 E4.68856
G1 X111.426 Y104.74 E4.70556
G1 X111.44 Y105.184 E4.72329
G1 X111.258 Y105.733 E4.74637
G1 X110.782 Y106.228 E4.77378
M204 S3000
M205 X10 Y10
G0 F9000 X110.592 Y106.288
G1 F1800 E-1.22622
G1 F480 Z0.315
G0 F9000 X111.866 Y105.258 Z0.315
M204 S2000
M205 X8 Y8
;TYPE:WALL-INNER
G1 F480 Z0.24
G1 F1800 E4.77378
G1 F1764.1 X111.851 Y104.606 E4.80482
M204 S3000
M205 X10 Y10
G1 F1800 E-1.19518
G1 F480 Z0.315
G0 F9000 X104.188 Y107.1 Z0.315
M204 S2000
M205 X8 Y8
;TYPE:SKIN
G1 F480 Z0.24
G1 F1800 E4.80482
G1 F2103.7 X103.586 Y106.713 E4.83339
G1 X103.268 Y106.38 E4.85176
G1 X102.795 Y105.526 E4.89073
G1 X102.822 Y104.521 E4.93085
G1 X103.16 Y103.688 E4.96673
G1 X103.838 Y103.118 E5.00209
G1 X104.229 Y102.914 E5.01969
G1 X104.781 Y102.775 E5.04241
G1 X110.192 Y102.771 E5.25837
G1 X110.977 Y102.997 E5.29098
G1 X111.514 Y103.356 E5.31676
G1 X111.518 Y102.998 E5.33105
G1 X111.518 Y102.962 E5.33248
G1 X111.288 Y102.38 E5.35746
G1 X110.901 Y102.087 E5.37683
G1 X110.518 Y101.987 E5.39263
G1 X99.355 Y101.983 E5.83817
G1 X98.799 Y102.242 E5.86265
G1 X98.482 Y102.82 E5.88896
G1 X98.482 Y106.971 E6.05464
G1 X98.543 Y107.301 E6.06803
G1 X98.779 Y107.696 E6.0864
G1 X99.013 Y107.874 E6.09813
G1 X99.501 Y108.015 E6.11841
G1 X110.676 Y108.019 E6.56443
G1 X111.132 Y107.77 E6.58516
G1 X111.412 Y107.403 E6.60359
G1 X111.515 Y107.015 E6.61961
G1 X111.515 Y106.595 E6.63637
G1 X111.217 Y106.908 E6.65362
G1 X110.222 Y107.226 E6.69531
G1 X104.883 Y107.225 E6.9084
G1 X104.188 Y107.1 E6.93659
M204 S3000
M205 X10 Y10
G1 F1800 E0.93659
G1 F480 Z0.315
G0 F9000 X110.737 Y102.251 Z0.315
M204 S2000
M205 X8 Y8
G1 F480 Z0.24
G1 F1800 E6.93659
G1 F2103.7 X111.208 Y102.722 E6.96317
M204 S3000
M205 X10 Y10
G0 F9000 X110.599 Y102.68
M204 S2000
M205 X8 Y8
G1 F2103.7 X110.106 Y102.186 E6.99103
M204 S3000
M205 X10 Y10
G0 F9000 X109.924 Y102.57
M204 S2000
M205 X8 Y8
G1 F2103.7 X109.54 Y102.186 E7.0127
M204 S3000
M205 X10 Y10
G0 F9000 X109.359 Y102.571
M204 S2000
M205 X8 Y8
G1 F2103.7 X108.975 Y102.186 E7.0344
M204 S3000
M205 X10 Y10
G0 F9000 X108.794 Y102.572
M204 S2000
M205 X8 Y8
G1 F2103.7 X108.408 Y102.186 E7.05619
M204 S3000
M205 X10 Y10
G0 F9000 X108.229 Y102.572
M204 S2000
M205 X8 Y8
G1 F2103.7 X107.842 Y102.186 E7.07801
M204 S3000
M205 X10 Y10
G0 F9000 X107.664 Y102.573
M204 S2000
M205 X8 Y8
G1 F2103.7 X107.276 Y102.185 E7.09991
M204 S3000
M205 X10 Y10
G0 F9000 X107.099 Y102.574
M204 S2000
M205 X8 Y8
G1 F2103.7 X106.71 Y102.185 E7.12187
M204 S3000
M205 X10 Y10
G0 F9000 X106.534 Y102.575
M204 S2000
M205 X8 Y8
G1 F2103.7 X106.145 Y102.185 E7.14385
M204 S3000
M205 X10 Y10
G0 F9000 X105.969 Y102.575
M204 S2000
M205 X8 Y8
G1 F2103.7 X105.578 Y102.184 E7.16592
M204 S3000
M205 X10 Y10
G0 F9000 X105.404 Y102.576
M204 S2000
M205 X8 Y8
G1 F2103.7 X105.013 Y102.184 E7.18802
M204 S3000
M205 X10 Y10
G0 F9000 X104.839 Y102.577
M204 S2000
M205 X8 Y8
G1 F2103.7 X104.447 Y102.184 E7.21017
M204 S3000
M205 X10 Y10
G0 F9000 X104.368 Y102.671
M204 S2000
M205 X8 Y8
G1 F2103.7 X103.881 Y102.184 E7.23766
M204 S3000
M205 X10 Y10
G0 F9000 X103.315 Y102.184
M204 S2000
M205 X8 Y8
G1 F2103.7 X103.963 Y102.831 E7.27421
M204 S3000
M205 X10 Y10
G0 F9000 X103.611 Y103.045
M204 S2000
M205 X8 Y8
G1 F2103.7 X102.749 Y102.184 E7.32284
M204 S3000
M205 X10 Y10
G0 F9000 X102.183 Y102.183
M204 S2000
M205 X8 Y8
G1 F2103.7 X103.304 Y103.304 E7.38611
M204 S3000
M205 X10 Y10
G0 F9000 X102.996 Y103.562
M204 S2000
M205 X8 Y8
G1 F2103.7 X101.617 Y102.183 E7.46395
M204 S3000
M205 X10 Y10
G0 F9000 X101.051 Y102.183
M204 S2000
M205 X8 Y8
G1 F2103.7 X102.831 Y103.962 E7.56439
M204 S3000
M205 X10 Y10
G0 F9000 X102.666 Y104.363
M204 S2000
M205 X8 Y8
G1 F2103.7 X100.485 Y102.182 E7.68749
M204 S3000
M205 X10 Y10
G0 F9000 X99.919 Y102.182
M204 S2000
M205 X8 Y8
G1 F2103.7 X102.613 Y104.875 E7.83953
M204 S3000
M205 X10 Y10
G0 F9000 X102.595 Y105.423
M204 S2000
M205 X8 Y8
G1 F2103.7 X99.368 Y102.196 E8.02167
M204 S3000
M205 X10 Y10
G0 F9000 X98.982 Y102.377
M204 S2000
M205 X8 Y8
G1 F2103.7 X103.239 Y106.633 E8.26193
G1 X103.309 Y106.703
M204 S3000
M205 X10 Y10
G1 F1800 E2.26193
G1 F480 Z0.315
G0 F9000 X111.111 Y107.152 Z0.315
M204 S2000
M205 X8 Y8
G1 F480 Z0.24
G1 F1800 E8.26193
G1 F2103.7 X111.237 Y107.277 E8.26901
M204 S3000
M205 X10 Y10
G0 F9000 X111.003 Y107.608
M204 S2000
M205 X8 Y8
G1 F2103.7 X110.682 Y107.288 E8.2871
M204 S3000
M205 X10 Y10
G0 F9000 X110.252 Y107.423
M204 S2000
M205 X8 Y8
G1 F2103.7 X110.638 Y107.81 E8.30892
M204 S3000
M205 X10 Y10
G0 F9000 X110.08 Y107.818
M204 S2000
M205 X8 Y8
G1 F2103.7 X109.686 Y107.423 E8.33119
M204 S3000
M205 X10 Y10
G0 F9000 X109.515 Y107.818
M204 S2000
M205 X8 Y8
G1 F2103.7 X109.121 Y107.424 E8.35342
M204 S3000
M205 X10 Y10
G0 F9000 X108.949 Y107.818
M204 S2000
M205 X8 Y8
G1 F2103.7 X108.555 Y107.424 E8.37566
M204 S3000
M205 X10 Y10
G0 F9000 X108.383 Y107.817
M204 S2000
M205 X8 Y8
G1 F2103.7 X107.99 Y107.425 E8.39782
M204 S3000
M205 X10 Y10
G0 F9000 X107.817 Y107.817
M204 S2000
M205 X8 Y8
G1 F2103.7 X107.425 Y107.425 E8.41994
M204 S3000
M205 X10 Y10
G0 F9000 X107.251 Y107.817
M204 S2000
M205 X8 Y8
G1 F2103.7 X106.86 Y107.425 E8.44204
M204 S3000
M205 X10 Y10
G0 F9000 X106.685 Y107.816
M204 S2000
M205 X8 Y8
G1 F2103.7 X106.295 Y107.426 E8.46405
M204 S3000
M205 X10 Y10
G0 F9000 X106.119 Y107.816
M204 S2000
M205 X8 Y8
G1 F2103.7 X105.73 Y107.427 E8.48601
M204 S3000
M205 X10 Y10
G0 F9000 X105.554 Y107.816
M204 S2000
M205 X8 Y8
G1 F2103.7 X105.164 Y107.427 E8.508
M204 S3000
M205 X10 Y10
G0 F9000 X104.987 Y107.816
M204 S2000
M205 X8 Y8
G1 F2103.7 X104.537 Y107.365 E8.53343
M204 S3000
M205 X10 Y10
G0 F9000 X104.421 Y107.816
M204 S2000
M205 X8 Y8
G1 F2103.7 X103.502 Y106.896 E8.58533
G1 X103.432 Y106.826
M204 S3000
M205 X10 Y10
G0 F9000 X103.856 Y107.816
M104 S200
M204 S2000
M205 X8 Y8
G1 F2103.7 X98.763 Y102.722 E8.87282
M204 S3000
M205 X10 Y10
G0 F9000 X98.681 Y103.207
M204 S2000
M205 X8 Y8
G1 F2103.7 X103.29 Y107.816 E9.13298
M204 S3000
M205 X10 Y10
G0 F9000 X102.724 Y107.815
M204 S2000
M205 X8 Y8
G1 F2103.7 X98.681 Y103.772 E9.36118
M204 S3000
M205 X10 Y10
G0 F9000 X98.681 Y104.338
M204 S2000
M205 X8 Y8
G1 F2103.7 X102.158 Y107.815 E9.55744
M204 S3000
M205 X10 Y10
G0 F9000 X101.592 Y107.815
M204 S2000
M205 X8 Y8
G1 F2103.7 X98.681 Y104.904 E9.72175
M204 S3000
M205 X10 Y10
G0 F9000 X98.681 Y105.469
M204 S2000
M205 X8 Y8
G1 F2103.7 X101.026 Y107.814 E9.85411
M204 S3000
M205 X10 Y10
G0 F9000 X100.46 Y107.814
M204 S2000
M205 X8 Y8
G1 F2103.7 X98.681 Y106.035 E9.95452
M204 S3000
M205 X10 Y10
G0 F9000 X98.681 Y106.601
M204 S2000
M205 X8 Y8
G1 F2103.7 X99.895 Y107.814 E10.02302
M204 S3000
M205 X10 Y10
G0 F9000 X99.247 Y107.732
M204 S2000
M205 X8 Y8
G1 F2103.7 X98.717 Y107.202 E10.05293
M204 S3000
M205 X10 Y10
G1 F1800 E4.05293
G1 F480 Z0.315
;MESH:NONMESH
G0 F9000 X102.852 Y104.344 Z0.315
;TIME_ELAPSED:17.966168
;LAYER:1
M140 S50
M106 S136
;MESH:LAB-001-030-130_00.STL
G0 X102.852 Y104.344 Z0.435
M204 S2000
M205 X8 Y8
;TYPE:WALL-INNER
G1 F480 Z0.36
G1 F1800 E10.05293
G1 F1723.4 X103.212 Y103.646 E10.06861
G1 X103.505 Y103.339 E10.07708
G1 X104.006 Y102.999 E10.08916
G1 F1404 X104.708 Y102.666 E10.10819
G1 F1192.6 X110.193 Y102.665 E10.26636
G1 F1415.5 X110.531 Y102.856 E10.27579
G1 F1723.4 X111.196 Y103.072 E10.28975
G1 X111.498 Y103.345 E10.29787
G1 X111.498 Y103.028 E10.3042
G1 X111.435 Y102.636 E10.31212
G1 X111.205 Y102.302 E10.32021
G1 X110.862 Y102.079 E10.32838
G1 F1418.4 X110.038 Y102.091 E10.34836
G1 F1194.7 X104.574 Y102.09 E10.50565
G1 F1373.2 X104.264 Y102.015 E10.51364
G1 F1673.2 X103.7 Y102.003 E10.52523
G1 F1723.4 X99.398 Y102.002 E10.61108
G1 X98.9 Y102.213 E10.62188
G1 X98.713 Y102.403 E10.6272
G1 X98.506 Y102.815 E10.6364
G1 X98.501 Y106.964 E10.7192
G1 X98.681 Y107.55 E10.73143
G1 X99.053 Y107.88 E10.74135
G1 X99.489 Y107.999 E10.75037
G1 F1710.5 X104.227 Y107.999 E10.84563
G1 F1392.6 X104.597 Y107.911 E10.85503
G1 F1174.4 X110.405 Y107.911 E11.02512
G1 F1141.3 X110.823 Y107.832 E11.03793
G1 F1119.1 X111.128 Y107.622 E11.04932
G1 X111.318 Y107.325 E11.06015
G1 X111.387 Y106.874 E11.07417
G1 F1126.4 X111.024 Y107.131 E11.08775
G1 F1148.9 X110.269 Y107.335 E11.11116
G1 F1174.4 X104.723 Y107.335 E11.27358
G1 F1283.7 X103.811 Y106.926 E11.30036
G1 F1549.1 X103.403 Y106.558 E11.31256
G1 F1723.4 X102.876 Y105.831 E11.33048
G1 X102.747 Y104.963 E11.34799
G1 X102.852 Y104.344 E11.36052
M204 S3000
M205 X10 Y10
G0 F9000 X103.149 Y104.945
M204 S2000
M205 X8 Y8
G1 F1723.4 X103.243 Y104.429 E11.37098
G1 X103.609 Y103.752 E11.38634
G1 X104.23 Y103.33 E11.40133
G1 X104.841 Y103.153 E11.41402
G1 X110.137 Y103.151 E11.51971
G1 X110.999 Y103.428 E11.53778
G1 X111.44 Y103.847 E11.54992
G1 F1592 X111.835 Y104.42 E11.56495
G1 X111.898 Y103.913 E11.57599
G1 F1723.4 X111.898 Y103.028 E11.59365
G1 X111.898 Y102.984 E11.59453
G1 X111.815 Y102.483 E11.60466
G1 X111.507 Y102.035 E11.61551
G1 X111.003 Y101.7 E11.62759
G1 X110.577 Y101.606 E11.63629
G1 X110.038 Y101.605 E11.64705
G1 X99.34 Y101.602 E11.86054
G1 X98.652 Y101.895 E11.87546
G1 X98.383 Y102.168 E11.88311
G1 X98.106 Y102.897 E11.89867
G1 X98.101 Y107.004 E11.98063
G1 X98.205 Y107.512 E11.99098
G1 X98.363 Y107.803 E11.99759
G1 X98.839 Y108.224 E12.01027
G1 X99.459 Y108.399 E12.02313
G1 X110.516 Y108.398 E12.24378
G1 X111.017 Y108.315 E12.25391
G1 X111.467 Y108.006 E12.26481
G1 X111.799 Y107.504 E12.27682
G1 X111.895 Y107.078 E12.28553
G1 X111.896 Y105.815 E12.31074
G1 F1622 X111.871 Y105.129 E12.32529
G1 F1577.4 X111.61 Y105.951 E12.3441
G1 F1673.2 X110.89 Y106.643 E12.36462
G1 F1723.4 X110.144 Y106.848 E12.38006
G1 X104.916 Y106.848 E12.48439
G1 X104.434 Y106.758 E12.49418
G1 X103.811 Y106.438 E12.50815
G1 X103.257 Y105.677 E12.52694
G1 X103.149 Y104.945 E12.5417
M204 S3000
M205 X10 Y10
G1 F1800 E6.5417
G1 F480 Z0.435
G0 F9000 X97.701 Y107.044 Z0.435
M204 S2000
M205 X8 Y8
;TYPE:WALL-OUTER
G1 F480 Z0.36
G1 F1800 E12.5417
G1 F1436.1 X97.825 Y107.65 E12.55405
G1 X98.045 Y108.056 E12.56326
G1 X98.625 Y108.569 E12.57872
G1 X99.429 Y108.799 E12.5954
G1 X110.549 Y108.798 E12.81732
